X:1
T:Victor Funeris, 87.87.77
T:Victor Funeris, 87.87.77
T:David Duffle Wood, 1895
T:Public Domain Courtesy of the Cyber Hymnal™
C:David Duffle Wood, 1895
Z:Public Domain
Z:Courtesy of the Cyber Hymnal™
%%score ( 1 2 ) ( 3 4 )
L:1/8
Q:1/4=110
M:4/4
K:D
V:1 treble 
V:2 treble 
V:3 bass 
V:4 bass 
V:1
 D2 | [DF]3 [DF] [CA]2 [CA]2 | [Dd]2 ([Dc][EB]) [FA]2 [FB]2 | [EG]2 [EA]2 [DF]2 [B,D]2 | %4
 G2 [DF]2 [CE]2 [CE]2 | [DF]3 [DF] [EA]2 [EA]2 | [Fd]2 (cB) [Ee]2 [CA]2 | [Fd]2 [Ec]2 [EB]2 [CA]2 | %8
 [DB]4 [CA]4 | [DB]3 [Dc] [Dd]2 [DA]2 | [EG]2 [EA]2 [DF]4 | [DG]3 [FA] (Bc) [Gd]2 | [Fd]4 [Ec]4 | %13
 [Fd]6 |] %14
V:2
 D2 | x8 | x8 | x8 | B,D x6 | x8 | x2 E2 x4 | x8 | x8 | x8 | x8 | x4 G2 x2 | x8 | x6 |] %14
V:3
 [D,F,]2 | [D,A,]3 [D,A,] [E,G,]2 [E,G,]2 | [F,A,]2 (B,C) [D,D]2 [B,,D]2 | %3
 [E,B,]2 [C,A,]2 [D,A,]2 [G,B,]2 | ([E,G,]2 A,2) A,2 [A,,A,]2 | [D,A,]3 [D,A,] [C,A,]2 [C,A,]2 | %6
 [B,,A,]2 ^G,2 [C,A,]2 [F,A,]2 | (F,^G,) A,2 [E,G,]2 [F,A,]2 | (A,2 ^G,2) [A,,A,]4 | %9
 G,3 G, [F,A,]2 [F,A,]2 | [E,B,]2 [C,A,]2 [D,A,]4 | [B,,D]3 [D,=C] [G,B,]2 [E,B,]2 | A,4 [A,,A,]4 | %13
 [D,A,]6 |] %14
V:4
 x2 | x8 | x2 G,2 x4 | x8 | x2 (F,G,) A,2 x2 | x8 | x2 (E,D,) x4 | B,,2 (C,D,) x4 | E,4 x4 | %9
 G,3 G, x4 | x8 | x8 | A,4 x4 | x6 |] %14

